!!!OTL: "Die Nonne" GOTT GEB IHM EIN VERDORBEN JAHR
!!!ARE: Europa, Mitteleuropa, Deutschland, Niederrhein
!!!SCT: Z1250
!!!YEM: Copyright 1995, estate of Helmut Schaffrath.
**kern
*ICvox
*Ivox
*M4/4
*k[b-]
*F:
{4c
=1
4a
8b-
8a
4g
4cc
=2
8f
16e
16f
8g
8f
8e
8d}
{4c
=3
4f
4f
4g
4a
=4
4b-
8cc
8b-
4a
8r}
{8a
=5
4a
8b-
8a
4g
4cc
=6
4dd
8cc
8bn
4cc
8r}
{8cc
=7
8cc
8b-
8a
8g
4f
4f
=8
4g
8cc
8b-
4a
8r}
{8f
=9
4g
8cc
8b-
4a}
==
!!!AGN: Liebes - Lied
!!!ONB: ESAC (Essen Associative Code) Database: ZUCCAL
!!!AMT: simple quadruple
!!!AIN: vox
!!!EED: Helmut Schaffrath
!!!EEV: 1.0
*-
